X:3475
T:Cotillon
R:Cotillon
O:France
M:4/4
K:G
D2G2F2G2|AGABA2B2|D2G2F2G2|A4G4:|\
B4A2G2|A8|B4A2G2|A8|B4A2G2|c2B2A2G2|\
c2B2[A2c2][G2^c2]|[F8d8]||


